images/hot_spring.svg

<svg xmlns="http://www.w3.org/2000/svg" width="16" height="16">
  <path d="M7.0031739 1.5037938a3.2998186 3.2998186 0 00-3.2771394 3.3262776 3.3640762 3.3640762 0 00.1814333 1.0886c-1.7198367 2.0524645-.706834 2.9218325-.3212882 4.1880856.3931055 1.285153-1.0092228 2.056245-2.0864832 3.076807 3.2317811-.585878 3.7685213-2.090263 3.6778046-2.918053-.0982763-.9185058-.8315694-1.5232835.1209556-2.596764.5556395.1776534 1.0810402.4838222 1.7009374.4838222a3.2355609 3.2355609 0 001.8634714-.5858785 3.3338373 3.3338373 0 001.4136676-2.7403991 3.2998186 3.2998186 0 00-3.2733591-3.3262777z" opacity=".5" fill="none" stroke="#fdfdfd" stroke-width="3" stroke-linecap="round" stroke-linejoin="round"/>
  <path d="M7.0031739 1.5037938a3.2998186 3.2998186 0 00-3.2771394 3.3262776 3.3640762 3.3640762 0 00.1814333 1.0886c-1.7198367 2.0524645-.706834 2.9218325-.3212882 4.1880856.3931055 1.285153-1.0092228 2.056245-2.0864832 3.076807 3.2317811-.585878 3.7685213-2.090263 3.6778046-2.918053-.0982763-.9185058-.8315694-1.5232835.1209556-2.596764.5556395.1776534 1.0810402.4838222 1.7009374.4838222a3.2355609 3.2355609 0 001.8634714-.5858785 3.3338373 3.3338373 0 001.4136676-2.7403991 3.2998186 3.2998186 0 00-3.2733591-3.3262777z" fill="#e11919"/>
</svg>

<?xml version="1.0" encoding="UTF-8" standalone="no"?>
<svg width="11.776625" height="14.683461" version="1.1" id="svg2" sodipodi:docname="hot_spring.svg" inkscape:version="1.4.2 (ebf0e940d0, 2025-05-08)" xmlns:inkscape="http://www.inkscape.org/namespaces/inkscape" xmlns:sodipodi="http://sodipodi.sourceforge.net/DTD/sodipodi-0.dtd" xmlns="http://www.w3.org/2000/svg" xmlns:svg="http://www.w3.org/2000/svg">
  <defs id="defs2" />
  <sodipodi:namedview id="namedview2" pagecolor="#ffffff" bordercolor="#666666" borderopacity="1.0" inkscape:showpageshadow="2" inkscape:pageopacity="0.0" inkscape:pagecheckerboard="true" inkscape:deskcolor="#d1d1d1" showgrid="true" inkscape:zoom="32.4375" inkscape:cx="3.3911368" inkscape:cy="9.495183" inkscape:window-width="2154" inkscape:window-height="1206" inkscape:window-x="0" inkscape:window-y="0" inkscape:window-maximized="1" inkscape:current-layer="svg2">
    <inkscape:grid id="grid2" units="px" originx="0" originy="0" spacingx="1" spacingy="1" empcolor="#0000ff" empopacity="0.25098039" color="#0000ff" opacity="0.1254902" empspacing="5" enabled="true" visible="true" />
  </sodipodi:namedview>
  <path d="M 7.0031591,1.5037787 A 3.2998186,3.2998186 0 0 0 3.7260197,4.8300563 A 3.3640762,3.3640762 0 0 0 3.907453,5.9186563 C 2.1876163,7.9711208 3.200619,8.8404888 3.5861648,10.106742 C 3.9792703,11.391895 2.576942,12.162987 1.4996816,13.183549 C 4.7314627,12.597671 5.2682029,11.093286 5.1774862,10.265496 C 5.0792099,9.3469901 4.3459168,8.7422124 5.2984418,7.6687319 C 5.8540813,7.8463853 6.379482,8.1525541 6.9993792,8.1525541 A 3.2355609,3.2355609 0 0 0 8.8628506,7.5666756 A 3.3338373,3.3338373 0 0 0 10.276518,4.8262765 A 3.2998186,3.2998186 0 0 0 7.0031591,1.4999988 Z" fill="#e11919" id="path2" style="stroke:#ffffff;stroke-width:3;stroke-linecap:round;stroke-linejoin:round;stroke-dasharray:none;stroke-opacity:0.5;paint-order:stroke fill markers" />
</svg>
